X: 40402
T: Tom Kruskal's
R: reel
M: 4/4
K: Gmajor
G2dB AGEG|DGGd cBAG|d2cB AGEG|DGGF G2BA|
ADBD AGEG|DGGd cBAG|c3B AGEG|DGGF GABc||
d2cB AD D2|EcBc BGAB|EcBc BGAB|dcBG A2Bc|
d2cB AGBd|eBBA B2 AB|c3B AGEG|DGGF G2||

